src/lib/images/logo/ethereum.svg

<svg fill="none" height="32" viewBox="0 0 32 32" width="32" xmlns="http://www.w3.org/2000/svg"><path d="m16 32c8.8366 0 16-7.1634 16-16 0-8.83656-7.1634-16-16-16-8.83656 0-16 7.16344-16 16 0 8.8366 7.16344 16 16 16z" fill="#627eea"/><g fill="#fff"><path d="m16.5 4v8.87l7.497 3.35z" fill-opacity=".602"/><path d="m16.498 4-7.498 12.22 7.498-3.35z"/><path d="m16.5 21.9682v6.027l7.502-10.379z" fill-opacity=".602"/><path d="m16.498 27.9952v-6.028l-7.498-4.351z"/><path d="m16.5 20.5731 7.497-4.353-7.497-3.348z" fill-opacity=".2"/><path d="m9 16.2201 7.498 4.353v-7.701z" fill-opacity=".602"/></g></svg>

<svg width="32" height="32" viewBox="0 0 32 32" fill="none" xmlns="http://www.w3.org/2000/svg">
<path d="M16 32C24.8366 32 32 24.8366 32 16C32 7.16344 24.8366 0 16 0C7.16344 0 0 7.16344 0 16C0 24.8366 7.16344 32 16 32Z" fill="#627EEA"/>
<path d="M16.5 4V12.87L23.997 16.22L16.5 4Z" fill="white" fill-opacity="0.602"/>
<path d="M16.498 4L9 16.22L16.498 12.87V4Z" fill="white"/>
<path d="M16.5 21.9682V27.9952L24.002 17.6162L16.5 21.9682Z" fill="white" fill-opacity="0.602"/>
<path d="M16.498 27.9952V21.9672L9 17.6162L16.498 27.9952Z" fill="white"/>
<path d="M16.5 20.5731L23.997 16.2201L16.5 12.8721V20.5731Z" fill="white" fill-opacity="0.2"/>
<path d="M9 16.2201L16.498 20.5731V12.8721L9 16.2201Z" fill="white" fill-opacity="0.602"/>
</svg>
